icons/stunned.svg

<svg id="icon" style="touch-action: none;" clip-rule="evenodd" fill-rule="evenodd" stroke-linejoin="round" stroke-miterlimit="2" viewBox="0 0 500 500" xmlns="http://www.w3.org/2000/svg"><path d="m6.044 5.539-1.086-.789c-.35-.254-.497-.706-.363-1.118s.518-.691.951-.691h2.179l.674-2.073c.134-.412.518-.691.951-.691s.817.279.951.691l.674 2.073h2.179c.433 0 .817.279.951.691s-.013.864-.363 1.118l-1.129.821.319.19c.115-.05.242-.075.373-.075h.836l.258-.795c.134-.412.518-.691.951-.691s.817.279.951.691l.258.795h.836c.433 0 .817.279.951.691s-.013.863-.363 1.118l-.676.491.258.794c.134.412-.013.864-.363 1.118-.326.237-.758.254-1.097.049.257.8.395 1.659.395 2.553v.2h.1c.6.2.8 1.1.5 2.1s-.9 1.6-1.5 1.5c-.2.4-.4.8-.7 1.1-.5 2.8-2.8 5.8-5.6 5.8s-5.1-2.9-5.6-5.8c-.3-.3-.5-.7-.7-1.1-.6.1-1.3-.5-1.6-1.5s-.1-1.9.5-2.1h.2v-.2c0-.881.134-1.729.385-2.519-.319.142-.696.106-.987-.105-.35-.255-.497-.706-.363-1.118l.258-.795-.676-.491c-.35-.255-.497-.706-.363-1.118s.518-.691.951-.691h.836l.258-.795c.134-.412.518-.691.951-.691s.817.279.951.691l.258.795h.836c.117 0 .23.02.335.06zm4.256 10.061c0-.3-.071-.505-.2-.7-.17-.188-.4-.3-.8-.5-.7-.3-1.3-.6-1.7-.9-.4-.2-.6-.7-.6-1.3s.7-2 2.4-2c.7 0 1.2.2 1.7.6.4.4.6.9.6 1.6h-1.4c-.018-.39-.065-.643-.2-.8-.2-.2-.4-.3-.7-.3s-.5.1-.7.3-.2.4-.2.6.1.4.3.6.5.3.9.5c.7.2 1.2.5 1.5.9s.5.8.5 1.4-.2 1.1-.6 1.5-1 .5-1.7.5-1.3-.2-1.8-.6-.7-1-.7-1.7h1.4c0 .4.1.8.3 1s.5.3.9.3c.3 0 .8-.24.8-1zm5.05-10.4.483 1.486h1.562l-1.264.918.483 1.485-1.264-.918-1.264.918.483-1.485-1.264-.918h1.562zm-12-.023.483 1.486h1.562l-1.264.918.483 1.486-1.264-.918-1.264.918.483-1.486-1.264-.918h1.562zm6-4 .898 2.764h2.906l-2.351 1.709.898 2.764-2.351-1.709-2.351 1.709.898-2.764-2.351-1.709h2.906z" fill="#b9c3ff" transform="matrix(21.3684 0 0 21.3684 47.0002 .0002)"/></svg>

<?xml version="1.0" encoding="UTF-8" standalone="no"?>
<!DOCTYPE svg PUBLIC "-//W3C//DTD SVG 1.1//EN" "http://www.w3.org/Graphics/SVG/1.1/DTD/svg11.dtd">
<svg width="100%" height="100%" viewBox="0 0 500 500" version="1.1" xmlns="http://www.w3.org/2000/svg" xmlns:xlink="http://www.w3.org/1999/xlink" xml:space="preserve" xmlns:serif="http://www.serif.com/" style="fill-rule:evenodd;clip-rule:evenodd;stroke-linejoin:round;stroke-miterlimit:2;">
    <g transform="matrix(21.3684,0,0,21.3684,250,256.421)">
        <g transform="matrix(1,0,0,1,-9.5,-12)">
            <path d="M6.044,5.539L4.958,4.75C4.608,4.496 4.461,4.044 4.595,3.632C4.729,3.22 5.113,2.941 5.546,2.941L7.725,2.941L8.399,0.868C8.533,0.456 8.917,0.177 9.35,0.177C9.783,0.177 10.167,0.456 10.301,0.868L10.975,2.941L13.154,2.941C13.587,2.941 13.971,3.22 14.105,3.632C14.239,4.044 14.092,4.496 13.742,4.75L12.613,5.571L12.932,5.761C13.047,5.711 13.174,5.686 13.305,5.686L14.141,5.686L14.399,4.891C14.533,4.479 14.917,4.2 15.35,4.2C15.783,4.2 16.167,4.479 16.301,4.891L16.559,5.686L17.395,5.686C17.828,5.686 18.212,5.965 18.346,6.377C18.48,6.789 18.333,7.24 17.983,7.495L17.307,7.986L17.565,8.78C17.699,9.192 17.552,9.644 17.202,9.898C16.876,10.135 16.444,10.152 16.105,9.947C16.362,10.747 16.5,11.606 16.5,12.5L16.5,12.7L16.6,12.7C17.2,12.9 17.4,13.8 17.1,14.8C16.8,15.8 16.2,16.4 15.6,16.3C15.4,16.7 15.2,17.1 14.9,17.4C14.4,20.2 12.1,23.2 9.3,23.2C6.5,23.2 4.2,20.3 3.7,17.4C3.4,17.1 3.2,16.7 3,16.3C2.4,16.4 1.7,15.8 1.4,14.8C1.1,13.8 1.3,12.9 1.9,12.7L2.1,12.7L2.1,12.5C2.1,11.619 2.234,10.771 2.485,9.981C2.166,10.123 1.789,10.087 1.498,9.876C1.148,9.621 1.001,9.17 1.135,8.758L1.393,7.963L0.717,7.472C0.367,7.217 0.22,6.766 0.354,6.354C0.488,5.942 0.872,5.663 1.305,5.663L2.141,5.663L2.399,4.868C2.533,4.456 2.917,4.177 3.35,4.177C3.783,4.177 4.167,4.456 4.301,4.868L4.559,5.663L5.395,5.663C5.512,5.663 5.625,5.683 5.73,5.723L6.044,5.539ZM10.3,15.6C10.3,15.3 10.229,15.095 10.1,14.9C9.93,14.712 9.7,14.6 9.3,14.4C8.6,14.1 8,13.8 7.6,13.5C7.2,13.3 7,12.8 7,12.2C7,11.6 7.7,10.2 9.4,10.2C10.1,10.2 10.6,10.4 11.1,10.8C11.5,11.2 11.7,11.7 11.7,12.4L10.3,12.4C10.282,12.01 10.235,11.757 10.1,11.6C9.9,11.4 9.7,11.3 9.4,11.3C9.1,11.3 8.9,11.4 8.7,11.6C8.5,11.8 8.5,12 8.5,12.2C8.5,12.4 8.6,12.6 8.8,12.8C9,13 9.3,13.1 9.7,13.3C10.4,13.5 10.9,13.8 11.2,14.2C11.5,14.6 11.7,15 11.7,15.6C11.7,16.2 11.5,16.7 11.1,17.1C10.7,17.5 10.1,17.6 9.4,17.6C8.7,17.6 8.1,17.4 7.6,17C7.1,16.6 6.9,16 6.9,15.3L8.3,15.3C8.3,15.7 8.4,16.1 8.6,16.3C8.8,16.5 9.1,16.6 9.5,16.6C9.8,16.6 10.3,16.36 10.3,15.6ZM15.35,5.2L15.833,6.686L17.395,6.686L16.131,7.604L16.614,9.089L15.35,8.171L14.086,9.089L14.569,7.604L13.305,6.686L14.867,6.686L15.35,5.2ZM3.35,5.177L3.833,6.663L5.395,6.663L4.131,7.581L4.614,9.067L3.35,8.149L2.086,9.067L2.569,7.581L1.305,6.663L2.867,6.663L3.35,5.177ZM9.35,1.177L10.248,3.941L13.154,3.941L10.803,5.65L11.701,8.414L9.35,6.705L6.999,8.414L7.897,5.65L5.546,3.941L8.452,3.941L9.35,1.177Z" style="fill:rgb(185,195,255);"/>
        </g>
    </g>
</svg>
